static/img/kroki/380d2dfe0954c2a46e2cdf721782286c.svg

<?xml version="1.0" encoding="us-ascii" standalone="no"?><svg xmlns="http://www.w3.org/2000/svg" xmlns:xlink="http://www.w3.org/1999/xlink" contentStyleType="text/css" height="767px" preserveAspectRatio="none" style="width:376px;height:767px;" version="1.1" viewBox="0 0 376 767" width="376px" zoomAndPan="magnify"><defs/><g><!--class azure_storage_queue--><g id="elem_azure_storage_queue"><rect codeLine="23" fill="#3D176E" height="100.3828" id="azure_storage_queue" rx="2.5" ry="2.5" style="stroke:#000D19;stroke-width:0.5;" width="323" x="46.5" y="660.14"/><ellipse cx="109.75" cy="680.0345" fill="#ADD1B2" rx="11" ry="11" style="stroke:#181818;stroke-width:1.0;"/><path d="M112.7188,685.6752 Q112.1406,685.972 111.5,686.1127 Q110.8594,686.2689 110.1563,686.2689 Q107.6563,686.2689 106.3281,684.6283 Q105.0156,682.972 105.0156,679.847 Q105.0156,676.722 106.3281,675.0658 Q107.6563,673.4095 110.1563,673.4095 Q110.8594,673.4095 111.5,673.5658 Q112.1563,673.722 112.7188,674.0189 L112.7188,676.7377 Q112.0938,676.1595 111.5,675.8939 Q110.9063,675.6127 110.2813,675.6127 Q108.9375,675.6127 108.25,676.6908 Q107.5625,677.7533 107.5625,679.847 Q107.5625,681.9408 108.25,683.0189 Q108.9375,684.0814 110.2813,684.0814 Q110.9063,684.0814 111.5,683.8158 Q112.0938,683.5345 112.7188,682.9564 L112.7188,685.6752 Z " fill="#000000"/><text fill="#D9B8FF" font-family="Helvetica" font-size="17" lengthAdjust="spacing" textLength="178" x="135.25" y="685.9198">azure_storage_queue</text><line style="stroke:#000D19;stroke-width:0.5;" x1="47.5" x2="368.5" y1="699.9291" y2="699.9291"/><text fill="#D9B8FF" font-family="sans-serif" font-size="14" font-weight="bold" lengthAdjust="spacing" textLength="228" x="57.5" y="721.9242">approximate_message_count</text><text fill="#D9B8FF" font-family="sans-serif" font-size="14" lengthAdjust="spacing" textLength="44" x="285.5" y="721.9242">: int64</text><text fill="#D9B8FF" font-family="sans-serif" font-size="14" font-weight="bold" lengthAdjust="spacing" textLength="130" x="57.5" y="748.2211">queue_metadata</text><text fill="#D9B8FF" font-family="sans-serif" font-size="14" lengthAdjust="spacing" textLength="171" x="187.5" y="748.2211">: dictionary[string, string]</text></g><!--class microsoft_resource--><g id="elem_microsoft_resource"><rect codeLine="27" fill="#3D176E" height="100.3828" id="microsoft_resource" rx="2.5" ry="2.5" style="stroke:#000D19;stroke-width:0.5;" width="214" x="7" y="438.75"/><ellipse cx="28.3" cy="458.6445" fill="#ADD1B2" rx="11" ry="11" style="stroke:#181818;stroke-width:1.0;"/><path d="M31.2688,464.2852 Q30.6906,464.582 30.05,464.7227 Q29.4094,464.8789 28.7063,464.8789 Q26.2063,464.8789 24.8781,463.2383 Q23.5656,461.582 23.5656,458.457 Q23.5656,455.332 24.8781,453.6758 Q26.2063,452.0195 28.7063,452.0195 Q29.4094,452.0195 30.05,452.1758 Q30.7063,452.332 31.2688,452.6289 L31.2688,455.3477 Q30.6438,454.7695 30.05,454.5039 Q29.4563,454.2227 28.8313,454.2227 Q27.4875,454.2227 26.8,455.3008 Q26.1125,456.3633 26.1125,458.457 Q26.1125,460.5508 26.8,461.6289 Q27.4875,462.6914 28.8313,462.6914 Q29.4563,462.6914 30.05,462.4258 Q30.6438,462.1445 31.2688,461.5664 L31.2688,464.2852 Z " fill="#000000"/><text fill="#D9B8FF" font-family="Helvetica" font-size="17" lengthAdjust="spacing" textLength="158" x="48.7" y="464.5298">microsoft_resource</text><line style="stroke:#000D19;stroke-width:0.5;" x1="8" x2="220" y1="478.5391" y2="478.5391"/><text fill="#D9B8FF" font-family="sans-serif" font-size="14" font-weight="bold" lengthAdjust="spacing" textLength="35" x="18" y="500.5342">etag</text><text fill="#D9B8FF" font-family="sans-serif" font-size="14" lengthAdjust="spacing" textLength="48" x="53" y="500.5342">: string</text><text fill="#D9B8FF" font-family="sans-serif" font-size="14" font-weight="bold" lengthAdjust="spacing" textLength="144" x="18" y="526.8311">provisioning_state</text><text fill="#D9B8FF" font-family="sans-serif" font-size="14" lengthAdjust="spacing" textLength="48" x="162" y="526.8311">: string</text></g><!--class queue--><g id="elem_queue"><rect codeLine="31" fill="#3D176E" height="39.7891" id="queue" rx="2.5" ry="2.5" style="stroke:#000D19;stroke-width:0.5;" width="94" x="256" y="469.05"/><ellipse cx="271" cy="488.9445" fill="#ADD1B2" rx="11" ry="11" style="stroke:#181818;stroke-width:1.0;"/><path d="M273.9688,494.5852 Q273.3906,494.882 272.75,495.0227 Q272.1094,495.1789 271.4063,495.1789 Q268.9063,495.1789 267.5781,493.5383 Q266.2656,491.882 266.2656,488.757 Q266.2656,485.632 267.5781,483.9758 Q268.9063,482.3195 271.4063,482.3195 Q272.1094,482.3195 272.75,482.4758 Q273.4063,482.632 273.9688,482.9289 L273.9688,485.6477 Q273.3438,485.0695 272.75,484.8039 Q272.1563,484.5227 271.5313,484.5227 Q270.1875,484.5227 269.5,485.6008 Q268.8125,486.6633 268.8125,488.757 Q268.8125,490.8508 269.5,491.9289 Q270.1875,492.9914 271.5313,492.9914 Q272.1563,492.9914 272.75,492.7258 Q273.3438,492.4445 273.9688,491.8664 L273.9688,494.5852 Z " fill="#000000"/><text fill="#D9B8FF" font-family="Helvetica" font-size="17" lengthAdjust="spacing" textLength="52" x="290" y="494.8298">queue</text></g><!--class resource--><g id="elem_resource"><rect codeLine="34" fill="#3D176E" height="310.7578" id="resource" rx="2.5" ry="2.5" style="stroke:#000D19;stroke-width:0.5;" width="227" x="94.5" y="7"/><ellipse cx="163.25" cy="26.8945" fill="#ADD1B2" rx="11" ry="11" style="stroke:#181818;stroke-width:1.0;"/><path d="M166.2188,32.5352 Q165.6406,32.832 165,32.9727 Q164.3594,33.1289 163.6563,33.1289 Q161.1563,33.1289 159.8281,31.4883 Q158.5156,29.832 158.5156,26.707 Q158.5156,23.582 159.8281,21.9258 Q161.1563,20.2695 163.6563,20.2695 Q164.3594,20.2695 165,20.4258 Q165.6563,20.582 166.2188,20.8789 L166.2188,23.5977 Q165.5938,23.0195 165,22.7539 Q164.4063,22.4727 163.7813,22.4727 Q162.4375,22.4727 161.75,23.5508 Q161.0625,24.6133 161.0625,26.707 Q161.0625,28.8008 161.75,29.8789 Q162.4375,30.9414 163.7813,30.9414 Q164.4063,30.9414 165,30.6758 Q165.5938,30.3945 166.2188,29.8164 L166.2188,32.5352 Z " fill="#000000"/><text fill="#D9B8FF" font-family="Helvetica" font-size="17" lengthAdjust="spacing" textLength="71" x="188.75" y="32.7798">resource</text><line style="stroke:#000D19;stroke-width:0.5;" x1="95.5" x2="320.5" y1="46.7891" y2="46.7891"/><text fill="#D9B8FF" font-family="sans-serif" font-size="14" font-weight="bold" lengthAdjust="spacing" textLength="29" x="105.5" y="68.7842">age</text><text fill="#D9B8FF" font-family="sans-serif" font-size="14" lengthAdjust="spacing" textLength="66" x="134.5" y="68.7842">: duration</text><text fill="#D9B8FF" font-family="sans-serif" font-size="14" font-weight="bold" lengthAdjust="spacing" textLength="43" x="105.5" y="95.0811">atime</text><text fill="#D9B8FF" font-family="sans-serif" font-size="14" lengthAdjust="spacing" textLength="70" x="148.5" y="95.0811">: datetime</text><text fill="#D9B8FF" font-family="sans-serif" font-size="14" font-weight="bold" lengthAdjust="spacing" textLength="43" x="105.5" y="121.3779">ctime</text><text fill="#D9B8FF" font-family="sans-serif" font-size="14" lengthAdjust="spacing" textLength="70" x="148.5" y="121.3779">: datetime</text><text fill="#D9B8FF" font-family="sans-serif" font-size="14" font-weight="bold" lengthAdjust="spacing" textLength="14" x="105.5" y="147.6748">id</text><text fill="#D9B8FF" font-family="sans-serif" font-size="14" lengthAdjust="spacing" textLength="48" x="119.5" y="147.6748">: string</text><text fill="#D9B8FF" font-family="sans-serif" font-size="14" font-weight="bold" lengthAdjust="spacing" textLength="33" x="105.5" y="173.9717">kind</text><text fill="#D9B8FF" font-family="sans-serif" font-size="14" lengthAdjust="spacing" textLength="48" x="138.5" y="173.9717">: string</text><text fill="#D9B8FF" font-family="sans-serif" font-size="14" font-weight="bold" lengthAdjust="spacing" textLength="90" x="105.5" y="200.2686">last_access</text><text fill="#D9B8FF" font-family="sans-serif" font-size="14" lengthAdjust="spacing" textLength="66" x="195.5" y="200.2686">: duration</text><text fill="#D9B8FF" font-family="sans-serif" font-size="14" font-weight="bold" lengthAdjust="spacing" textLength="90" x="105.5" y="226.5654">last_update</text><text fill="#D9B8FF" font-family="sans-serif" font-size="14" lengthAdjust="spacing" textLength="66" x="195.5" y="226.5654">: duration</text><text fill="#D9B8FF" font-family="sans-serif" font-size="14" font-weight="bold" lengthAdjust="spacing" textLength="48" x="105.5" y="252.8623">mtime</text><text fill="#D9B8FF" font-family="sans-serif" font-size="14" lengthAdjust="spacing" textLength="70" x="153.5" y="252.8623">: datetime</text><text fill="#D9B8FF" font-family="sans-serif" font-size="14" font-weight="bold" lengthAdjust="spacing" textLength="43" x="105.5" y="279.1592">name</text><text fill="#D9B8FF" font-family="sans-serif" font-size="14" lengthAdjust="spacing" textLength="48" x="148.5" y="279.1592">: string</text><text fill="#D9B8FF" font-family="sans-serif" font-size="14" font-weight="bold" lengthAdjust="spacing" textLength="34" x="105.5" y="305.4561">tags</text><text fill="#D9B8FF" font-family="sans-serif" font-size="14" lengthAdjust="spacing" textLength="171" x="139.5" y="305.4561">: dictionary[string, string]</text></g><!--reverse link microsoft_resource to azure_storage_queue--><g id="link_microsoft_resource_azure_storage_queue"><path codeLine="46" d="M142.3017,555.9941 C157.7417,592.0141 171.45,624.03 186.86,660 " fill="none" id="microsoft_resource-backto-azure_storage_queue" style="stroke:#FFAF37;stroke-width:2.0;"/><polygon fill="none" points="135.21,539.45,136.7869,558.358,147.8164,553.6303,135.21,539.45" style="stroke:#FFAF37;stroke-width:2.0;"/></g><!--reverse link queue to azure_storage_queue--><g id="link_queue_azure_storage_queue"><path codeLine="47" d="M287.5856,525.5471 C273.1356,558.9071 250.02,612.29 229.35,660.03 " fill="none" id="queue-backto-azure_storage_queue" style="stroke:#FFAF37;stroke-width:2.0;"/><polygon fill="none" points="294.74,509.03,282.0799,523.1623,293.0913,527.9319,294.74,509.03" style="stroke:#FFAF37;stroke-width:2.0;"/></g><!--reverse link resource to microsoft_resource--><g id="link_resource_microsoft_resource"><path codeLine="48" d="M158.1943,335.35 C145.5743,378.94 137.74,405.98 128.34,438.42 " fill="none" id="resource-backto-microsoft_resource" style="stroke:#FFAF37;stroke-width:2.0;"/><polygon fill="none" points="163.2,318.06,152.431,333.6814,163.9576,337.0185,163.2,318.06" style="stroke:#FFAF37;stroke-width:2.0;"/></g><!--reverse link resource to queue--><g id="link_resource_queue"><path codeLine="49" d="M258.3294,335.3343 C275.8294,395.0843 288.66,438.95 297.44,468.96 " fill="none" id="resource-backto-queue" style="stroke:#FFAF37;stroke-width:2.0;"/><polygon fill="none" points="253.27,318.06,252.5713,337.0208,264.0875,333.6478,253.27,318.06" style="stroke:#FFAF37;stroke-width:2.0;"/></g><!--SRC=[XL9DJzj05BpxLwp4BMgafBI4e5uW4cel21LkLMMzx3uxgsHttRVFG2ZzxtsE4-Ila9FjcV7CxDWhQr2XAtYh7BebKapYsle229ow9WhFYx09fCwo3BBpMPUy3PvF2kx0eVgEcoTagw6hU5nPlVOOe_hSe6v0htCAfJUrFHFuA1HwRgWM6uZncfdiicHib37pvMMMTPLTqxDpCvrTO4yMo23j9PF9n4pdNSd9g0_F_QvuiA-efitHxW9ZhsOlOgVwi6MbQ9Ji7VJ07-ru3yPOdwkl3UndtOayKWj_M849pvKwWqrinaH6mi3R0XUzK-7yqcIpGV6FO-94LzCfU2q9qyY18CVqJuabgh_9Q0H5GU75Ec1CdVnI5Ql5XKUZAsKzNtmHqKukD8C1XeenLhCD7cZxAyg_vFDFghx-Jlxj4vtL56B8E2MCeIHT1uf9NZdKSW4a_yb6CPD7AIX56lJ1x53u7MXvIkbTgPAWQbKXR5sDYLzrBvWUmAnfTP5Xsu1aSGfQopATX1rJ5cRVjy6uWHmF3bl6ia8yEUJ0XD_UnkFnqDTCwecEynsBldTNKR_s7m00]--></g></svg>

<svg xmlns="http://www.w3.org/2000/svg" width="376" height="767" viewBox="0 0 376 767"><rect width="323" height="100.383" x="46.5" y="660.14" fill="#3D176E" rx="2.5" ry="2.5" style="stroke:#000d19;stroke-width:.5"/><circle cx="109.75" cy="680.034" r="11" fill="#ADD1B2" style="stroke:#181818;stroke-width:1"/><path d="M112.719 685.675q-.578.297-1.219.438-.64.156-1.344.156-2.5 0-3.828-1.64-1.312-1.657-1.312-4.782t1.312-4.781q1.328-1.657 3.828-1.657.703 0 1.344.157.656.156 1.219.453v2.719q-.625-.579-1.219-.844-.594-.281-1.219-.281-1.344 0-2.031 1.078-.687 1.062-.687 3.156t.687 3.172q.688 1.062 2.031 1.062.625 0 1.219-.265.594-.282 1.219-.86z"/><text x="135.25" y="685.92" fill="#D9B8FF" font-family="Helvetica" font-size="17" textLength="178">azure_storage_queue</text><path d="M47.5 699.929h321" style="stroke:#000d19;stroke-width:.5"/><text x="57.5" y="721.924" fill="#D9B8FF" font-family="sans-serif" font-size="14" font-weight="bold" textLength="228">approximate_message_count</text><text x="285.5" y="721.924" fill="#D9B8FF" font-family="sans-serif" font-size="14" textLength="44">: int64</text><text x="57.5" y="748.221" fill="#D9B8FF" font-family="sans-serif" font-size="14" font-weight="bold" textLength="130">queue_metadata</text><text x="187.5" y="748.221" fill="#D9B8FF" font-family="sans-serif" font-size="14" textLength="171">: dictionary[string, string]</text><rect width="214" height="100.383" x="7" y="438.75" fill="#3D176E" rx="2.5" ry="2.5" style="stroke:#000d19;stroke-width:.5"/><circle cx="28.3" cy="458.644" r="11" fill="#ADD1B2" style="stroke:#181818;stroke-width:1"/><path d="M31.269 464.285q-.578.297-1.219.438-.64.156-1.344.156-2.5 0-3.828-1.64-1.312-1.657-1.312-4.782t1.312-4.781q1.328-1.656 3.828-1.656.703 0 1.344.156.656.156 1.219.453v2.719q-.625-.579-1.219-.844-.594-.281-1.219-.281-1.343 0-2.031 1.078-.687 1.062-.687 3.156t.687 3.172q.688 1.062 2.031 1.062.625 0 1.219-.265.594-.281 1.219-.86z"/><text x="48.7" y="464.53" fill="#D9B8FF" font-family="Helvetica" font-size="17" textLength="158">microsoft_resource</text><path d="M8 478.539h212" style="stroke:#000d19;stroke-width:.5"/><text x="18" y="500.534" fill="#D9B8FF" font-family="sans-serif" font-size="14" font-weight="bold" textLength="35">etag</text><text x="53" y="500.534" fill="#D9B8FF" font-family="sans-serif" font-size="14" textLength="48">: string</text><text x="18" y="526.831" fill="#D9B8FF" font-family="sans-serif" font-size="14" font-weight="bold" textLength="144">provisioning_state</text><text x="162" y="526.831" fill="#D9B8FF" font-family="sans-serif" font-size="14" textLength="48">: string</text><rect width="94" height="39.789" x="256" y="469.05" fill="#3D176E" rx="2.5" ry="2.5" style="stroke:#000d19;stroke-width:.5"/><circle cx="271" cy="488.945" r="11" fill="#ADD1B2" style="stroke:#181818;stroke-width:1"/><path d="M273.969 494.585q-.578.297-1.219.438-.64.156-1.344.156-2.5 0-3.828-1.64-1.312-1.657-1.312-4.782t1.312-4.781q1.328-1.656 3.828-1.656.703 0 1.344.156.656.156 1.219.453v2.719q-.625-.579-1.219-.844-.594-.281-1.219-.281-1.344 0-2.031 1.078-.687 1.062-.687 3.156t.687 3.172q.688 1.062 2.031 1.062.625 0 1.219-.265.594-.281 1.219-.86z"/><text x="290" y="494.83" fill="#D9B8FF" font-family="Helvetica" font-size="17" textLength="52">queue</text><rect width="227" height="310.758" x="94.5" y="7" fill="#3D176E" rx="2.5" ry="2.5" style="stroke:#000d19;stroke-width:.5"/><circle cx="163.25" cy="26.895" r="11" fill="#ADD1B2" style="stroke:#181818;stroke-width:1"/><path d="M166.219 32.535q-.578.297-1.219.438-.64.156-1.344.156-2.5 0-3.828-1.64-1.312-1.657-1.312-4.782t1.312-4.781q1.328-1.656 3.828-1.656.703 0 1.344.156.656.156 1.219.453v2.719q-.625-.578-1.219-.844-.594-.281-1.219-.281-1.344 0-2.031 1.078-.687 1.062-.687 3.156t.687 3.172q.688 1.062 2.031 1.062.625 0 1.219-.265.594-.281 1.219-.86z"/><text x="188.75" y="32.78" fill="#D9B8FF" font-family="Helvetica" font-size="17" textLength="71">resource</text><path d="M95.5 46.789h225" style="stroke:#000d19;stroke-width:.5"/><text x="105.5" y="68.784" fill="#D9B8FF" font-family="sans-serif" font-size="14" font-weight="bold" textLength="29">age</text><text x="134.5" y="68.784" fill="#D9B8FF" font-family="sans-serif" font-size="14" textLength="66">: duration</text><text x="105.5" y="95.081" fill="#D9B8FF" font-family="sans-serif" font-size="14" font-weight="bold" textLength="43">atime</text><text x="148.5" y="95.081" fill="#D9B8FF" font-family="sans-serif" font-size="14" textLength="70">: datetime</text><text x="105.5" y="121.378" fill="#D9B8FF" font-family="sans-serif" font-size="14" font-weight="bold" textLength="43">ctime</text><text x="148.5" y="121.378" fill="#D9B8FF" font-family="sans-serif" font-size="14" textLength="70">: datetime</text><text x="105.5" y="147.675" fill="#D9B8FF" font-family="sans-serif" font-size="14" font-weight="bold" textLength="14">id</text><text x="119.5" y="147.675" fill="#D9B8FF" font-family="sans-serif" font-size="14" textLength="48">: string</text><text x="105.5" y="173.972" fill="#D9B8FF" font-family="sans-serif" font-size="14" font-weight="bold" textLength="33">kind</text><text x="138.5" y="173.972" fill="#D9B8FF" font-family="sans-serif" font-size="14" textLength="48">: string</text><text x="105.5" y="200.269" fill="#D9B8FF" font-family="sans-serif" font-size="14" font-weight="bold" textLength="90">last_access</text><text x="195.5" y="200.269" fill="#D9B8FF" font-family="sans-serif" font-size="14" textLength="66">: duration</text><text x="105.5" y="226.565" fill="#D9B8FF" font-family="sans-serif" font-size="14" font-weight="bold" textLength="90">last_update</text><text x="195.5" y="226.565" fill="#D9B8FF" font-family="sans-serif" font-size="14" textLength="66">: duration</text><text x="105.5" y="252.862" fill="#D9B8FF" font-family="sans-serif" font-size="14" font-weight="bold" textLength="48">mtime</text><text x="153.5" y="252.862" fill="#D9B8FF" font-family="sans-serif" font-size="14" textLength="70">: datetime</text><text x="105.5" y="279.159" fill="#D9B8FF" font-family="sans-serif" font-size="14" font-weight="bold" textLength="43">name</text><text x="148.5" y="279.159" fill="#D9B8FF" font-family="sans-serif" font-size="14" textLength="48">: string</text><text x="105.5" y="305.456" fill="#D9B8FF" font-family="sans-serif" font-size="14" font-weight="bold" textLength="34">tags</text><text x="139.5" y="305.456" fill="#D9B8FF" font-family="sans-serif" font-size="14" textLength="171">: dictionary[string, string]</text><g fill="none"><path d="M142.302 555.994c15.44 36.02 29.148 68.036 44.558 104.006" style="stroke:#ffaf37;stroke-width:2"/><path d="m135.21 539.45 1.577 18.908 11.03-4.728z" style="stroke:#ffaf37;stroke-width:2"/></g><g fill="none"><path d="M287.586 525.547c-14.45 33.36-37.566 86.743-58.236 134.483" style="stroke:#ffaf37;stroke-width:2"/><path d="m294.74 509.03-12.66 14.132 11.011 4.77z" style="stroke:#ffaf37;stroke-width:2"/></g><path fill="none" d="M158.194 335.35c-12.62 43.59-20.454 70.63-29.854 103.07m34.86-120.36-10.769 15.621 11.527 3.338zm95.13 17.274c17.5 59.75 30.33 103.616 39.11 133.626m-44.17-150.9-.699 18.96 11.516-3.372z" style="stroke:#ffaf37;stroke-width:2"/></svg>
